X:498
T:Csak azert szeretek
Z:Jack Campin, http://www.campin.me.uk/
F:Jack Campin's Nine-Note Tunebook
% last edit 03-02-2013
B:Balint Sarosi, Gypsy Music
N:collected 1955: a Polish song a few centuries old
N:also used as a dance tune
M:2/4
L:1/8
Q:1/4=100
K:DMin
DD d2|c c2 A|cc  A2|G F2 F |
cc A2|G F2 E|GG _E2|D D2 D |
CE G2|A F2 F|CE  G2|A F2 F |
cA G2|A F2 E|GG _E2|D D2 D|]

